src/next/cmd/ko/sc_underlinedouble.svg

<svg height="16" viewBox="0 0 16 16" width="16" xmlns="http://www.w3.org/2000/svg" xmlns:xlink="http://www.w3.org/1999/xlink"><linearGradient id="a" gradientTransform="matrix(.93333325 0 0 .83333333 2.266668 -3.333333)" gradientUnits="userSpaceOnUse" x1="64" x2="64" y1="92" y2="0"><stop offset="0" stop-color="#1c1c1c"/><stop offset=".5" stop-color="#888"/><stop offset="1"/></linearGradient>





/&amp;amp;amp;amp;gt;<g transform="scale(.125)"><path d="m89.999993 0v100h14.000007v-43.749995h13.99999v-12.500001h-13.99999v-43.750004zm-83.9999941 6.2500008v12.5000002h55.9999981c0 37.500004-27.999999 62.500007-55.9999981 62.500007v12.499991c41.9999991 0 69.9999991-31.249995 69.9999991-78.393562v-9.1064362z" fill="url(#a)" fill-rule="evenodd"/><g fill="#010101"><rect height="8" rx="1.78422" ry="2.29502" width="128" y="120"/><rect height="8" rx="1.78422" ry="2.29502" width="128" y="104"/></g></g></svg>

<?xml version="1.0" encoding="UTF-8" standalone="no"?>
<svg
   xmlns:dc="http://purl.org/dc/elements/1.1/"
   xmlns:cc="http://creativecommons.org/ns#"
   xmlns:rdf="http://www.w3.org/1999/02/22-rdf-syntax-ns#"
   xmlns:svg="http://www.w3.org/2000/svg"
   xmlns="http://www.w3.org/2000/svg"
   xmlns:sodipodi="http://sodipodi.sourceforge.net/DTD/sodipodi-0.dtd"
   xmlns:inkscape="http://www.inkscape.org/namespaces/inkscape"
   height="16"
   viewBox="0 0 16 16"
   width="16"
   version="1.1"
   id="svg17"
   sodipodi:docname="sc_underlinedouble.svg"
   inkscape:version="0.92.4 (unknown)"
   inkscape:export-filename="/home/rizmut/Dokumen/Rizmut/Github/libreoffice-style-karasa-jaga/src/next/cmd/ko/sc_underlinedouble.png"
   inkscape:export-xdpi="96"
   inkscape:export-ydpi="96"><metadata
   id="metadata23">
  <rdf:RDF>
    <cc:Work
       rdf:about="">
      <dc:format>image/svg+xml</dc:format>
      <dc:type
         rdf:resource="http://purl.org/dc/dcmitype/StillImage" />
      <dc:title></dc:title>
    </cc:Work>
  </rdf:RDF>
</metadata>
<defs
   id="defs21" />
<sodipodi:namedview
   pagecolor="#ffffff"
   bordercolor="#666666"
   borderopacity="1"
   objecttolerance="10"
   gridtolerance="10"
   guidetolerance="10"
   inkscape:pageopacity="0"
   inkscape:pageshadow="2"
   inkscape:window-width="1366"
   inkscape:window-height="706"
   id="namedview19"
   showgrid="false"
   inkscape:zoom="5.2149125"
   inkscape:cx="-32.196351"
   inkscape:cy="0.86396157"
   inkscape:window-x="0"
   inkscape:window-y="0"
   inkscape:window-maximized="1"
   inkscape:current-layer="svg17" />
<linearGradient
   id="a"
   gradientTransform="matrix(0.93333325,0,0,0.83333333,2.266668,-3.333333)"
   gradientUnits="userSpaceOnUse"
   x1="64"
   x2="64"
   y1="92"
   y2="0">
  <stop
     offset="0"
     stop-color="#1c1c1c"
     id="stop2" />
  <stop
     offset=".5"
     stop-color="#888"
     id="stop4" />
  <stop
     offset="1"
     id="stop6" />
</linearGradient>





/&amp;amp;amp;gt;<g
   id="g834"
   transform="scale(0.125)">
  <path
     id="path9"
     d="M 89.999993,0 V 100 H 104 V 56.250005 h 13.99999 V 43.750004 H 104 V 0 Z M 5.9999989,6.2500008 V 18.750001 H 61.999997 c 0,37.500004 -27.999999,62.500007 -55.9999981,62.500007 v 12.499991 c 41.9999991,0 69.9999991,-31.249995 69.9999991,-78.393562 V 6.2500008 Z"
     style="fill:url(#a);fill-rule:evenodd"
     inkscape:connector-curvature="0" />
  <g
     id="g15"
     style="fill:#010101">
    <rect
       id="rect11"
       y="120"
       width="128"
       ry="2.2950201"
       rx="1.78422"
       height="8"
       x="0" />
    <rect
       id="rect13"
       y="104"
       width="128"
       ry="2.2950201"
       rx="1.78422"
       height="8"
       x="0" />
  </g>
</g>
</svg>
